X: 31373
T: Paddy O'Rafferty
R: jig
M: 6/8
K: Dmajor
|:"D"d.f.f "A"c.e.e|"D"def "Em"{a}gfe|"D"d.f.f "A"cee|"Bm"dfe "A"dBA|
"D"d.f.f "A"c.e.e|"D"def "G"~g3|"D" Jafd "Em"(3.g.f.ec|"Bm"dfe "A"dBA:|
|:"D"~A3 "G"Af{g}f|"Em"Ja2e "Bm"{a}fdB|"D"(3.A.c.A A "G"{d}ABc|"Bm"dfe "A"dcB|
"D"AFA "G"BGB|"Em"eBB "A"efg|"D"(3.f.g.af "Em"gfe|"Bm"dfe "A"dBA:|
"D"f.A.A "A"e.A.A|"Bm"fAf "Em"gfe|"D"f.A.A "A"e.A.A|"Bm"dfe "A"dBA|
"D"f.A.A "A"e.A.A|"D"def "G"~g3|"D"Jafd "Em"(3.g.f.ec|"Bm"dfe "A"dBA|
"D"(3f.g.A .A "A"{f}e.A.A|"Bm"(3.f.g.A .f "Em"gfe|"D"(3.g.f.A .A "A"{f}e.A.A|"Bm"dfe "A"dBA|
"D"(3f.g.A .A "A"{f}e.A.A|"D"def"G"J~g3|"D"Jafd "Em"(3.g.f.ec|"Bm"df.e "A"dBA|

